!!!COM: Corelli, Arcangelo
!!!OTL: Sonate a tre [in A]
!!!XEN: Trio Sonata Opus 1, No. 3
!!!OPS: Opus 1
!!!ONM: No. 3
!!!OMV: Movement 1.
!!!YEC: Copyright 1994, Center for Computer Assisted Research in the Humanities
!!!YEM: Rights to all derivative electronic formats reserved.
!!!YEM: Refer to licensing agreement for further details.
!! For the following instrumentation: Violino I & II, Violone/Archlute,
!!    and Organo.
!! Grave.
**kern	**kern	**kern	**kern
*ICklav	*ICstr	*ICstr	*ICstr
*Iorgan	*Icello	*Ivioln	*Ivioln
*	*Iarchl	*	*
!Organo	!Violone	!Violin 2	!Violin 1
!	! or	!	!
!	!Archlute	!	!
*clefF4	*clefF4	*clefG2	*clefG2
*k[f#c#]	*k[f#c#]	*k[f#c#]	*k[f#c#]
*A:	*A:	*A:	*A:
*M4/4	*M4/4	*M4/4	*M4/4
*MM48	*MM48	*MM48	*MM48
=1-	=1-	=1-	=1-
2.A\	2.A\	2.cc#\	2.ee\
4AA/	4AA/	4cc#\	4ee\
=2	=2	=2	=2
4BB/	4BB/	4b\	4dd\
8C#/L	8C#/L	4a/	4cc#\
8D/J	8D/J	.	.
4E\	4E\	4g#/	4b\
4C#/	4C#/	[4a/	4ee\
=3	=3	=3	=3
4BB/	4BB/	4a/]	2dd\
4E\	4E\	4g#/	.
4AA/	4AA/	4a/	4cc#\
[4A\	[4A\	4cc#\	4ee\
=4	=4	=4	=4
4A\]	4A\]	4dd#\	4ff#\
4G#\	4G#\	2ee\	4bb\
4F#\	4F#\	.	2aa\
4B\	4B\	4dd#\	.
=5	=5	=5	=5
4E\	4E\	4ee\	4gg#\
2E\	2E\	4e/	4g#/
.	.	4f#/	4a/
[4D\	[4D\	4f#/	4b\
=6	=6	=6	=6
4D\]	4D\]	4g#/	4e/
4C#/	4C#/	2a/	4ee\
4BB/	4BB/	.	2dd\
4E\	4E\	4g#/	.
=7	=7	=7	=7
2AA/	2AA/	4a/	4cc#\
.	.	4r	[4ff#\
2E\	2E\	4.gg#\	8ff#\L]
.	.	.	(16ee\L
.	.	.	16dd#\JJ)
.	.	.	[4ee\
.	.	(16ff#\LL	.
.	.	16ee\JJ)	.
=8	=8	=8	=8
4BB/	4BB/	4.ff#\	8ee\L]
.	.	.	(16dd\L
.	.	.	16cc#\JJ)
4B\	4B\	.	[4dd\
.	.	(16ee\LL	.
.	.	16dd\JJ)	.
4G#\	4G#\	4.ee\	8dd\L]
.	.	.	(16cc#\L
.	.	.	16b\JJ)
4A\	4A\	.	[4cc#\
.	.	(16dd\LL	.
.	.	16cc#\JJ)	.
=9	=9	=9	=9
4F#\	4F#\	4.dd\	8cc#/L]
.	.	.	8f#/J
4G#\	4G#\	.	[4b\
.	.	(16cc#\LL	.
.	.	16b\JJ)	.
4A\	4A\	4.cc#\	8b/L]
.	.	.	8e/J
4AA/	4AA/	.	[4a/
.	.	(16dd\LL	.
.	.	16cc#\JJ)	.
=10	=10	=10	=10
4E\	4E\	4.b\	8a/L]
.	.	.	(16b/L
.	.	.	16a/JJ)
4E#\	4E#\	.	[4g#/
.	.	(16cc#\LL	.
.	.	16b\JJ)	.
4.F#\	4.F#\	4.a/	8g#/L]
.	.	.	(16a/L
.	.	.	16g#/JJ)
.	.	.	8f#/L
8BB/	8BB/	(16b/LL	(16g#/L
.	.	16a/JJ)	16f#/JJ)
=11	=11	=11	=11
8C#/L	8C#/L	8g#/L	8e#/L
8BB/J	8BB/J	8a/J	8f#/J
4C#/	4C#/	8.g#/L	8.f#/L
.	.	16g#/Jk	16e#/Jk
2FF#/	2FF#/	4f#/	4f#/
.	.	[4ff#\	4aa\
=12	=12	=12	=12
2C#/	2C#/	8ff#\L]	4.gg#\
.	.	(16ee\L	.
.	.	16dd\JJ)	.
.	.	[4ee\	.
.	.	.	(16ff#\LL
.	.	.	16ee\JJ)
2D\	2D\	8ee\L]	4.ff#\
.	.	(16dd\L	.
.	.	16cc#\JJ)	.
.	.	[4dd\	.
.	.	.	(16ee\LL
.	.	.	16dd\JJ)
=13	=13	=13	=13
2AA/	2AA/	8dd\L]	4ee\
.	.	(16cc#\L	.
.	.	16b\JJ)	.
.	.	8cc#\L	[4aa\
.	.	(16dd\L	.
.	.	16cc#\JJ)	.
2E\	2E\	4b\	8aa\L]
.	.	.	(16gg#\L
.	.	.	16ff#\JJ)
.	.	[4ee\	8gg#\L
.	.	.	(16aa\L
.	.	.	16gg#\JJ)
=14	=14	=14	=14
2BB/	2BB/	8ee\L]	4.ff#\
.	.	16dd\L	.
.	.	16cc#\JJ	.
.	.	2dd\	.
.	.	.	(16bb\LL
.	.	.	16aa\JJ)
4E\	4E\	.	8gg#\L
.	.	.	8ee\J
8F#\L	8F#\L	4cc#\	[4aa\
8E\J	8E\J	.	.
=15	=15	=15	=15
4D\	4D\	2b\	4aa\]
4E\	4E\	.	4gg#\
4AA/	4AA/	4a/	4aa\
4C#/	4C#/	8r	[4ee\
.	.	8e/	.
=16	=16	=16	=16
2D\	2D\	4.f#/	8ee\L]
.	.	.	(16dd\L
.	.	.	16cc#\JJ)
.	.	.	2dd\
.	.	(16b/LL	.
.	.	16a/JJ)	.
2E\	2E\	8g#/L	.
.	.	8e/J	.
.	.	[4a/	4cc#\
=17	=17	=17	=17
2EE/	2EE/	4a/]	2b\
.	.	4g#/	.
2AA/	2AA/	2a/	2a/
==	==	==	==
*-	*-	*-	*-
!!!CDT: 1653/2/17/-1713/1/8
!!!OCY: Italia
!!!ODE: Queen Christina Alexandra of Sweden
!!!ODT: 1681//
!!!OPC: Roma; Rome
!!!AGN: trio sonata
!!!AST: baroque, chamber
!!!AMT: simple quadruple
!!!YOR1: J. Joachim & F. Chrysander (eds.) Les Oeuvre de Arcangelo Corelli
!!!YOR2: London: Augener & Co. 1871
!!!YOY: 1871
!!!AIN: archl cello organ violn
!!!EEV: 1.1
!!!RDT: 1993 August 19
!!!YER: 1994 December 14
!!!EMD: 1996 July 9
!!!YEN: United States of America
!!!EFL: 1/3
!!!ENC: Frances Bennion & Steven Rasmussen
!!!EED: W.B. Hewlett
!!!VTS: 1764217999
